X:138
T:General Graham’s Victory. RH.138
R:Reel
S:Rev.R.Harrison’s MS,c1815,Cumbria
O:England
A:Temple Sowerby,Cumbria
Z:vmp.Simon Wilson. Review PJH, 2008.
M:C|
L:1/8
Q:1/2=80
K:A
E|A>BAc B”sic”DDd|cAec dfca|\
A>BAc B”sic”DDd|c>A BA/G/A3:|!
c/d/|efea fdec|dfca fB B/c/d|\
efea fdec|dBGB cAAc/d/|!
efea fdec|dfca fB B/c/d|\
cAfd ecdB|caBg aAA|]

